<?xml version="1.0" encoding="UTF-8"?>
<map version="1.10" tiledversion="1.12.2" orientation="orthogonal" renderorder="right-down" width="60" height="100" tilewidth="32" tileheight="32" infinite="1" nextlayerid="6" nextobjectid="54">
 <tileset firstgid="1" source="tiles_packed.tsx"/>
 <tileset firstgid="331" source="tiles_packed.tsx"/>
 <layer id="1" name="Tile Layer 1" width="60" height="100">
  <data encoding="csv">
   <chunk x="0" y="-32" width="16" height="16">
0,0,0,0,0,0,0,0,0,0,0,0,0,0,0,0,
0,0,0,0,0,0,0,0,0,0,0,0,0,0,0,0,
0,0,0,0,0,0,0,0,0,0,0,0,0,0,0,0,
0,0,0,0,0,0,0,0,0,0,0,0,0,0,0,0,
0,0,0,0,0,0,0,0,0,0,0,0,0,0,0,0,
0,0,0,0,0,0,0,0,0,0,0,0,0,0,0,0,
0,0,0,0,0,0,0,0,0,0,0,0,0,0,0,0,
0,0,0,0,0,0,0,0,0,0,0,0,0,0,0,0,
0,0,0,0,0,0,0,0,0,0,0,0,0,0,0,0,
0,0,0,0,0,0,0,0,0,0,0,0,0,0,0,0,
0,0,0,0,0,0,0,0,0,0,0,0,0,0,0,0,
0,0,0,0,0,0,0,0,0,0,0,0,0,0,0,0,
0,0,0,0,0,0,0,0,0,0,0,0,0,0,0,0,
0,0,0,0,0,0,0,0,0,0,0,0,0,0,0,0,
0,0,0,0,47,47,47,47,47,47,47,47,47,47,47,47,
0,0,0,0,47,47,47,47,47,47,47,47,47,47,47,47
</chunk>
   <chunk x="16" y="-32" width="16" height="16">
0,0,0,0,0,0,0,0,0,0,0,0,0,0,0,0,
0,0,0,0,0,0,0,0,0,0,0,0,0,0,0,0,
0,0,0,0,0,0,0,0,0,0,0,0,0,0,0,0,
0,0,0,0,0,0,0,0,0,0,0,0,0,0,0,0,
0,0,0,0,0,0,0,0,0,0,0,0,0,0,0,0,
0,0,0,0,0,0,0,0,0,0,0,0,0,0,0,0,
0,0,0,0,0,0,0,0,0,0,0,0,0,0,0,0,
0,0,0,0,0,0,0,0,0,0,0,0,0,0,0,0,
0,0,0,0,0,0,0,0,0,0,0,0,0,0,0,0,
0,0,0,0,0,0,0,0,0,0,0,0,0,0,0,0,
0,0,0,0,0,0,0,0,0,0,0,0,0,0,0,0,
0,0,0,0,0,0,0,0,0,0,0,0,0,0,0,0,
0,0,0,0,0,0,0,0,0,0,0,0,0,0,0,0,
0,0,0,0,0,0,0,0,0,0,0,0,0,0,0,0,
47,47,47,47,47,47,47,47,47,47,47,47,47,47,0,0,
47,47,47,47,47,47,47,47,47,47,47,47,47,47,0,0
</chunk>
   <chunk x="-32" y="-16" width="16" height="16">
0,0,0,0,0,0,0,0,0,0,0,0,0,0,0,0,
0,0,0,0,0,0,0,0,0,0,0,0,0,0,0,0,
0,0,47,47,47,47,47,47,47,47,47,47,47,47,47,47,
0,0,47,47,47,47,47,47,47,47,47,47,47,47,47,47,
0,0,47,47,47,0,0,0,0,0,0,0,0,0,0,0,
0,0,47,47,47,0,0,0,0,0,0,0,0,0,0,0,
0,0,47,47,47,0,0,0,0,0,0,0,0,0,0,0,
0,0,47,47,47,0,0,0,0,0,0,0,0,0,0,0,
0,0,47,47,47,0,0,0,0,0,0,0,0,0,0,0,
0,0,47,47,47,47,47,47,47,47,47,47,47,47,47,47,
0,0,47,47,47,47,47,47,47,47,47,47,47,47,47,47,
0,0,47,47,47,0,0,0,0,0,0,0,0,0,0,0,
0,0,47,47,47,0,0,0,0,0,0,0,0,0,0,0,
0,0,47,47,47,0,0,0,0,0,0,0,0,0,0,0,
0,0,47,47,47,0,0,0,0,0,0,0,0,0,0,0,
0,0,47,47,47,0,0,0,0,0,0,0,0,0,0,0
</chunk>
   <chunk x="-16" y="-16" width="16" height="16">
0,0,0,0,0,0,0,0,0,0,0,0,0,0,0,0,
0,0,0,0,0,0,0,0,0,0,0,0,0,0,0,0,
47,47,47,47,47,47,0,0,0,0,0,0,0,0,0,0,
47,47,47,47,47,47,0,0,0,0,0,0,0,0,0,0,
0,0,0,0,47,47,0,0,0,0,0,0,0,0,0,0,
0,0,0,0,47,47,0,0,0,0,0,0,0,0,0,0,
0,0,0,0,47,47,0,0,0,0,0,0,0,0,0,0,
0,0,0,0,47,47,0,0,0,0,0,0,0,0,0,0,
0,0,0,0,47,47,0,0,0,0,0,0,0,0,0,0,
47,47,47,47,47,47,47,47,47,47,47,47,47,47,47,47,
60,60,47,47,47,47,47,47,47,47,47,47,47,47,47,47,
60,60,0,0,0,0,0,0,0,0,0,0,0,47,47,47,
60,60,0,0,0,0,0,0,0,0,0,0,0,0,0,0,
60,60,0,0,0,0,0,0,0,0,0,0,0,0,0,0,
60,60,0,0,0,0,0,0,0,0,0,0,0,0,0,0,
60,60,0,0,0,0,0,0,0,0,0,0,0,0,0,0
</chunk>
   <chunk x="0" y="-16" width="16" height="16">
0,0,0,0,47,47,47,47,47,47,47,47,47,47,47,47,
0,0,0,0,47,47,47,47,47,47,47,47,47,47,47,47,
0,0,0,0,47,47,47,47,47,47,47,47,47,47,47,47,
0,0,0,0,47,47,47,47,47,47,47,47,47,47,47,47,
0,0,0,0,47,47,47,47,47,47,47,47,47,47,47,47,
0,0,0,0,47,47,47,47,47,47,47,47,47,47,47,47,
0,0,0,0,47,47,47,47,47,47,47,47,47,47,47,47,
0,0,0,0,47,47,47,47,47,47,47,47,47,47,47,47,
0,0,0,0,47,47,47,0,0,0,0,0,0,0,0,0,
47,47,47,47,47,47,47,0,0,0,0,0,0,0,0,0,
47,47,47,47,47,47,47,0,0,0,0,0,0,0,0,0,
47,47,47,47,47,47,47,47,47,47,47,47,47,47,47,47,
0,0,0,47,47,47,47,47,47,47,47,47,47,47,47,47,
0,0,0,47,47,47,47,47,47,47,47,47,47,47,47,47,
0,0,0,47,47,47,47,47,47,47,47,47,47,47,47,47,
0,0,0,47,47,47,0,0,0,0,0,0,0,0,0,0
</chunk>
   <chunk x="16" y="-16" width="16" height="16">
0,0,0,0,0,0,0,0,0,0,0,47,47,47,0,0,
0,0,0,0,0,0,0,0,0,0,0,47,47,47,0,0,
0,0,0,0,0,0,0,0,0,0,0,47,47,47,0,0,
0,0,0,0,0,60,47,47,47,0,47,47,47,47,0,0,
0,0,0,0,0,60,47,47,0,0,0,47,47,47,0,0,
0,0,0,0,0,60,47,47,0,0,0,47,47,47,0,0,
0,0,0,0,0,60,47,47,0,0,0,47,47,47,0,0,
0,0,0,0,47,47,47,47,0,47,0,47,47,47,0,0,
0,0,0,47,47,47,47,47,0,0,0,47,47,47,0,0,
60,60,47,47,47,47,47,47,0,47,47,47,47,47,0,0,
60,60,0,0,0,47,47,47,0,0,0,47,47,47,0,0,
60,60,0,0,0,47,47,47,0,0,0,47,47,47,0,0,
60,60,0,0,0,0,0,0,0,0,0,47,47,47,0,0,
60,60,0,0,0,0,0,0,0,0,0,47,47,47,0,0,
60,60,0,0,0,0,0,0,0,0,0,47,47,47,0,0,
60,60,0,0,0,0,0,0,0,0,0,47,47,47,0,0
</chunk>
   <chunk x="-32" y="0" width="16" height="16">
0,0,47,47,47,47,47,47,0,0,0,0,0,47,47,47,
0,0,47,47,47,47,47,47,47,47,47,47,47,47,47,47,
0,0,47,47,47,47,47,47,47,47,47,47,47,47,47,47,
0,0,47,47,47,47,47,47,47,47,47,47,47,47,47,47,
0,0,47,47,47,47,47,47,47,47,47,47,47,47,47,47,
0,0,47,47,47,47,47,47,47,47,47,47,47,47,47,47,
0,0,47,47,47,47,47,47,47,47,47,47,47,47,47,47,
0,0,47,47,47,47,47,47,47,47,47,47,47,47,47,47,
0,0,47,47,47,47,47,47,47,47,47,47,47,47,47,47,
0,0,47,47,47,47,47,47,47,47,47,47,47,47,47,47,
0,0,0,0,0,0,0,0,0,0,0,0,0,0,0,0,
0,0,0,0,0,0,0,0,0,0,0,0,0,0,0,0,
0,0,0,0,0,0,0,0,0,0,0,0,0,0,0,0,
0,0,0,0,0,0,0,0,0,0,0,0,0,0,0,0,
0,0,0,0,0,0,0,0,0,0,0,0,0,0,0,0,
0,0,0,0,0,0,0,0,0,0,0,0,0,0,0,0
</chunk>
   <chunk x="-16" y="0" width="16" height="16">
47,47,47,47,47,47,0,0,0,0,0,0,0,0,0,0,
47,47,47,47,47,47,0,0,0,0,0,0,0,0,0,0,
47,47,47,47,47,47,0,0,0,0,0,0,0,0,0,0,
47,47,47,47,47,47,0,0,0,0,0,0,0,0,0,0,
47,47,47,47,47,47,0,0,0,0,0,0,0,0,0,0,
47,47,47,47,47,47,0,0,0,0,0,0,0,0,0,0,
47,47,47,47,47,47,0,0,0,0,0,0,0,0,0,0,
47,47,47,47,47,47,0,0,0,0,0,0,0,0,0,0,
47,47,47,47,47,47,47,47,47,47,47,47,47,47,47,47,
47,47,47,47,47,47,47,47,47,47,47,47,47,47,47,47,
0,0,0,0,0,0,0,0,0,0,0,0,0,0,0,0,
0,0,0,0,0,0,0,0,0,0,0,0,0,0,0,0,
0,0,0,0,0,0,0,0,0,0,0,0,0,0,0,0,
0,0,0,0,0,0,0,0,0,0,0,0,0,0,0,0,
0,0,0,0,0,0,0,0,0,0,0,0,0,0,0,0,
0,0,0,0,0,0,0,0,0,0,0,0,0,0,0,0
</chunk>
   <chunk x="0" y="0" width="16" height="16">
0,0,0,47,47,47,0,0,0,0,0,0,0,0,0,0,
0,0,0,0,0,0,0,0,0,0,0,0,0,0,0,0,
0,0,0,0,0,0,0,0,0,0,0,0,0,0,0,0,
0,0,0,0,0,0,0,0,0,0,0,0,0,0,0,0,
0,0,0,0,0,0,0,0,0,0,0,0,0,0,0,0,
0,0,0,0,0,0,0,0,0,0,47,47,47,47,47,47,
0,0,0,0,0,0,0,0,0,0,47,47,47,47,47,47,
47,47,47,47,47,47,47,47,47,47,47,47,47,47,47,47,
47,47,47,47,47,47,47,47,47,47,47,47,47,47,47,47,
47,47,47,47,47,47,47,47,47,47,47,47,47,47,47,47,
0,0,0,0,0,0,0,0,0,0,0,0,0,0,0,0,
0,0,0,0,0,0,0,0,0,0,0,0,0,0,0,0,
0,0,0,0,0,0,0,0,0,0,0,0,0,0,0,0,
0,0,0,0,0,0,0,0,0,0,0,0,0,0,0,0,
0,0,0,0,0,0,0,0,0,0,0,0,0,0,0,0,
0,0,0,0,0,0,0,0,0,0,0,0,0,0,0,0
</chunk>
   <chunk x="16" y="0" width="16" height="16">
0,0,0,0,0,0,47,47,47,47,47,47,47,47,0,0,
0,0,0,0,0,0,47,47,47,47,47,47,47,47,0,0,
0,0,0,0,0,0,47,47,47,47,47,47,47,47,0,0,
0,0,0,0,0,0,47,47,47,47,47,47,47,47,0,0,
0,0,0,0,0,0,47,47,47,47,47,47,47,47,0,0,
47,47,47,47,47,47,47,47,47,47,47,47,47,47,0,0,
47,47,47,47,47,47,47,47,47,47,47,47,47,47,0,0,
47,47,47,47,47,47,47,47,47,47,47,47,47,47,0,0,
47,47,47,47,47,47,47,47,47,47,47,47,47,47,0,0,
47,47,47,47,47,47,47,47,47,47,47,47,47,47,0,0,
0,0,0,0,0,0,0,0,0,0,0,0,0,0,0,0,
0,0,0,0,0,0,0,0,0,0,0,0,0,0,0,0,
0,0,0,0,0,0,0,0,0,0,0,0,0,0,0,0,
0,0,0,0,0,0,0,0,0,0,0,0,0,0,0,0,
0,0,0,0,0,0,0,0,0,0,0,0,0,0,0,0,
0,0,0,0,0,0,0,0,0,0,0,0,0,0,0,0
</chunk>
  </data>
 </layer>
 <objectgroup id="2" name="Object Layer 1">
  <object id="1" x="-512" y="-224" width="64" height="32"/>
  <object id="2" type="cyanBlock" x="-512" y="-224" width="64" height="32"/>
  <object id="7" type="cyanBlock" x="-320" y="0" width="416" height="32"/>
  <object id="8" type="cyanBlock" x="576" y="96" width="64" height="64"/>
  <object id="18" type="yellowBlock" x="512" y="0" width="64" height="160"/>
  <object id="19" type="yellowBlock" x="480" y="-256" width="32" height="96"/>
  <object id="22" type="yellowBlock" x="416" y="-32" width="32" height="192"/>
  <object id="23" type="cyanBlock" x="800" y="-416" width="32" height="32"/>
  <object id="24" type="cyanBlock" x="768" y="-288" width="32" height="32"/>
  <object id="25" type="cyanBlock" x="832" y="-288" width="32" height="32"/>
  <object id="26" type="yellowBlock" x="768" y="-352" width="96" height="32"/>
  <object id="27" type="yellowBlock" x="-768" y="-32" width="160" height="32"/>
 </objectgroup>
 <objectgroup id="3" name="Object Layer 2">
  <object id="31" type="permanentHazardBlock" x="-320" y="224" width="320" height="32"/>
  <object id="33" type="permanentHazardBlock" x="-96" y="-128" width="192" height="32"/>
  <object id="34" type="permanentHazardBlock" x="-768" y="0" width="160" height="32"/>
  <object id="36" type="permanentHazardBlock" x="800" y="-384" width="32" height="32"/>
  <object id="40" type="permanentHazardBlock" x="800" y="-256" width="64" height="32"/>
 </objectgroup>
 <objectgroup id="4" name="Object Layer 3">
  <object id="42" type="portal" x="832" y="-64" width="32" height="64"/>
  <object id="45" type="book" x="-832" y="-128" width="64" height="64"/>
  <object id="47" type="item" x="-672" y="-320" width="32" height="32"/>
  <object id="49" type="box" x="32" y="-64" width="64" height="64"/>
  <object id="52" type="book" x="256" y="-224" width="64" height="64"/>
 </objectgroup>
 <layer id="5" name="Tile Layer 2" width="60" height="100">
  <data encoding="csv">
   <chunk x="-32" y="-16" width="16" height="16">
0,0,0,0,0,0,0,0,0,0,0,0,0,0,0,0,
0,0,0,0,0,0,0,0,0,0,0,0,0,0,0,0,
0,0,0,0,0,0,0,0,0,0,0,0,0,0,0,0,
0,0,0,0,0,0,0,0,0,0,0,0,0,0,0,0,
0,0,0,0,0,0,0,0,0,0,0,0,0,0,0,0,
0,0,0,0,0,0,0,0,0,0,0,0,0,0,0,0,
0,0,0,0,0,0,0,0,0,0,0,0,0,0,0,0,
0,0,0,0,0,0,0,0,0,0,0,0,0,0,0,0,
0,0,0,0,0,0,0,0,0,0,0,0,0,0,0,0,
0,0,0,0,0,0,0,0,0,0,0,0,0,0,0,0,
0,0,0,0,0,0,0,0,0,0,0,0,0,0,0,0,
0,0,0,0,0,0,0,0,0,0,0,0,0,0,0,0,
0,0,0,0,0,0,0,0,0,0,0,0,0,0,0,0,
0,0,0,0,0,0,0,0,0,0,0,0,0,0,0,0,
0,0,0,0,0,0,0,0,0,0,0,0,0,0,0,0,
0,0,0,0,0,0,0,0,0,0,0,0,0,0,533,0
</chunk>
  </data>
 </layer>
</map>
