<?xml version="1.0" encoding="UTF-8"?>
<map version="1.10" tiledversion="1.12.2" orientation="orthogonal" renderorder="right-down" width="63" height="21" tilewidth="32" tileheight="32" infinite="1" nextlayerid="2" nextobjectid="1">
 <tileset firstgid="1" source="tiles_packed.tsx"/>
 <layer id="1" name="Tile Layer 1" width="63" height="21">
  <data encoding="csv">
   <chunk x="-32" y="-32" width="16" height="16">
0,0,0,0,0,0,0,0,0,0,0,0,0,0,0,0,
0,0,0,0,0,0,0,0,0,0,0,0,0,0,0,0,
0,0,0,0,0,0,0,0,0,0,0,0,0,0,0,0,
0,0,0,0,0,0,0,0,0,0,0,0,0,0,0,0,
0,0,0,0,0,0,0,0,0,0,0,0,0,0,0,0,
0,0,0,0,0,0,0,0,0,0,0,0,0,0,0,0,
0,0,0,0,0,0,0,0,0,0,0,0,0,0,0,0,
0,0,0,0,0,0,0,0,0,0,0,0,0,0,0,0,
0,0,0,0,0,0,0,0,0,0,0,0,0,0,0,0,
0,0,0,0,0,0,0,0,0,0,0,0,0,0,0,0,
0,0,0,0,0,0,0,0,0,0,0,0,0,0,0,0,
0,0,47,47,47,47,47,47,47,47,47,47,47,47,47,47,
0,0,69,69,69,69,69,69,69,69,69,69,69,69,69,69,
0,0,0,0,0,0,0,0,0,0,0,0,0,0,0,0,
0,0,0,0,0,0,0,0,0,0,0,0,0,0,0,0,
0,0,0,0,0,0,0,0,0,0,0,0,0,0,0,0
</chunk>
   <chunk x="-16" y="-32" width="16" height="16">
0,0,0,0,0,0,0,0,0,0,0,0,0,0,0,0,
0,0,0,0,0,0,0,0,0,0,0,0,0,0,0,0,
0,0,0,0,0,0,0,0,0,0,0,0,0,0,0,0,
0,0,0,0,0,0,0,0,0,0,0,0,0,0,0,0,
0,0,0,0,0,0,0,0,0,0,0,0,0,0,0,0,
0,0,0,0,0,0,0,0,0,0,0,0,0,0,0,0,
0,0,0,0,0,0,0,0,0,0,0,0,0,0,0,0,
0,0,0,0,0,0,0,0,0,0,0,0,0,0,0,0,
0,0,0,0,0,0,0,0,0,0,0,0,0,0,0,0,
0,0,0,0,0,0,0,0,0,0,0,0,0,0,0,0,
0,0,0,0,0,0,0,0,0,0,0,0,0,0,0,0,
47,47,47,47,47,47,47,47,47,47,47,47,47,47,47,47,
69,69,69,69,69,69,69,69,69,69,69,69,69,69,69,69,
0,0,0,0,0,0,0,0,0,0,0,0,0,0,0,0,
0,0,0,0,0,0,0,0,0,0,0,0,0,0,0,0,
0,0,0,0,0,0,0,0,0,0,0,0,0,0,0,0
</chunk>
   <chunk x="0" y="-32" width="16" height="16">
0,0,0,0,0,0,0,0,0,0,0,0,0,0,0,0,
0,0,0,0,0,0,0,0,0,0,0,0,0,0,0,0,
0,0,0,0,0,0,0,0,0,0,0,0,0,0,0,0,
0,0,0,0,0,0,0,0,0,0,0,0,0,0,0,0,
0,0,0,0,0,0,0,0,0,0,0,0,0,0,0,0,
0,0,0,0,0,0,0,0,0,0,0,0,0,0,0,0,
0,0,0,0,0,0,0,0,0,0,0,0,0,0,0,0,
0,0,0,0,0,0,0,0,0,0,0,0,0,0,0,0,
0,0,0,0,0,0,0,0,0,0,0,0,0,0,0,0,
0,0,0,0,0,0,0,0,0,0,0,0,0,0,0,0,
0,0,0,0,0,0,0,0,0,0,0,0,0,0,0,0,
47,47,47,47,47,47,47,47,47,47,47,47,47,47,47,47,
69,69,69,69,69,69,69,69,69,69,69,69,69,69,69,69,
0,0,0,0,0,0,0,0,0,0,0,0,0,0,0,0,
0,0,0,0,0,0,0,0,0,0,0,0,0,0,0,0,
0,0,0,0,0,0,0,0,0,0,0,0,0,0,0,0
</chunk>
   <chunk x="16" y="-32" width="16" height="16">
0,0,0,0,0,0,0,0,0,0,0,0,0,0,0,0,
0,0,0,0,0,0,0,0,0,0,0,0,0,0,0,0,
0,0,0,0,0,0,0,0,0,0,0,0,0,0,0,0,
0,0,0,0,0,0,0,0,0,0,0,0,0,0,0,0,
0,0,0,0,0,0,0,0,0,0,0,0,0,0,0,0,
0,0,0,0,0,0,0,0,0,0,0,0,0,0,0,0,
0,0,0,0,0,0,0,0,0,0,0,0,0,0,0,0,
0,0,0,0,0,0,0,0,0,0,0,0,0,0,0,0,
0,0,0,0,0,0,0,0,0,0,0,0,0,0,0,0,
0,0,0,0,0,0,0,0,0,0,0,0,0,0,0,0,
0,0,0,0,0,0,0,0,0,0,0,0,0,0,0,0,
47,47,47,47,47,47,47,47,47,47,47,47,47,47,47,47,
69,69,69,69,69,69,69,69,69,69,69,69,69,69,69,69,
0,0,0,0,0,0,0,0,0,0,0,0,0,0,0,0,
0,0,0,0,0,0,0,0,0,0,0,0,0,0,0,0,
0,0,0,0,0,0,0,0,0,0,0,0,0,0,0,0
</chunk>
   <chunk x="32" y="-32" width="16" height="16">
0,0,0,0,0,0,0,0,0,0,0,0,0,0,0,0,
0,0,0,0,0,0,0,0,0,0,0,0,0,0,0,0,
0,0,0,0,0,0,0,0,0,0,0,0,0,0,0,0,
0,0,0,0,0,0,0,0,0,0,0,0,0,0,0,0,
0,0,0,0,0,0,0,0,0,0,0,0,0,0,0,0,
0,0,0,0,0,0,0,0,0,0,0,0,0,0,0,0,
0,0,0,0,0,0,0,0,0,0,0,0,0,0,0,0,
0,0,0,0,0,0,0,0,0,0,0,0,0,0,0,0,
0,0,0,0,0,0,0,0,0,0,0,0,0,0,0,0,
0,0,0,0,0,0,0,0,0,0,0,0,0,0,0,0,
0,0,0,0,0,0,0,0,0,0,0,0,0,0,0,0,
47,47,47,47,47,47,47,47,0,0,0,0,0,0,0,0,
69,69,47,47,47,47,47,47,0,0,0,0,0,0,0,0,
0,0,47,47,47,47,47,47,0,0,0,0,0,0,0,0,
0,0,47,47,47,47,47,47,0,0,0,0,0,0,0,0,
0,0,0,0,0,0,0,47,0,0,0,0,0,0,0,0
</chunk>
   <chunk x="-32" y="-16" width="16" height="16">
0,0,0,0,0,0,0,0,0,0,0,0,0,0,0,0,
0,0,25,25,25,25,25,25,25,25,25,25,26,0,0,0,
0,0,47,47,47,47,47,47,47,47,47,47,48,0,0,0,
0,0,47,47,47,47,47,47,47,47,47,47,47,3,3,3,
0,0,47,47,47,47,47,47,47,69,69,69,70,0,0,0,
0,0,47,47,47,47,47,47,48,0,0,0,0,0,0,0,
0,0,55,47,47,47,47,69,70,0,0,0,0,0,0,0,
0,0,55,47,47,47,48,0,0,0,0,0,0,0,0,0,
0,0,55,69,69,69,70,0,0,0,0,0,0,0,0,0,
0,0,48,0,0,0,0,0,0,0,0,0,0,24,25,25,
0,0,48,0,0,0,0,0,0,0,0,0,0,46,47,47,
0,0,48,0,0,0,0,0,0,0,0,0,0,46,47,47,
0,0,48,0,0,0,0,0,0,0,0,0,0,46,47,47,
0,0,48,0,0,0,0,0,0,0,0,0,0,46,47,47,
0,0,55,25,25,25,25,25,25,25,25,25,25,47,47,47,
0,0,55,47,47,47,47,47,47,47,47,47,47,47,47,47
</chunk>
   <chunk x="-16" y="-16" width="16" height="16">
0,0,0,0,0,0,0,0,0,0,0,0,0,0,0,0,
24,26,0,0,0,24,26,0,0,0,27,0,0,0,0,0,
46,48,0,0,0,46,48,0,0,0,46,25,25,25,25,25,
69,69,3,3,3,69,69,3,3,3,69,69,69,69,69,69,
0,0,0,0,0,0,0,0,0,0,0,0,0,0,0,0,
0,0,0,0,0,0,0,0,0,0,0,0,0,0,0,0,
0,0,0,0,0,0,0,0,0,0,0,0,0,0,0,0,
0,0,0,0,0,0,0,0,2,3,3,3,4,0,0,0,
0,0,0,0,0,0,0,0,0,0,0,0,0,0,0,0,
25,25,25,26,0,0,0,0,0,0,0,0,0,0,0,0,
47,47,47,48,0,0,0,0,0,0,0,0,0,0,0,0,
47,47,47,48,0,0,0,0,0,0,0,0,0,0,0,24,
47,47,47,47,25,25,25,25,25,25,25,25,25,25,25,47,
47,47,47,47,47,47,47,47,47,47,47,47,47,47,47,47,
47,47,47,47,47,47,47,47,47,47,47,47,47,47,47,47,
47,47,47,47,47,47,47,47,47,47,47,47,47,47,47,47
</chunk>
   <chunk x="0" y="-16" width="16" height="16">
0,0,0,0,0,0,0,0,0,0,0,0,0,0,0,0,
0,0,0,0,0,0,0,0,0,0,0,0,0,0,0,0,
25,25,25,25,25,26,0,0,0,0,24,25,25,25,25,25,
69,69,69,69,69,70,0,0,0,0,68,69,69,69,69,69,
0,0,0,0,0,0,0,0,0,0,0,0,0,0,0,0,
0,0,0,0,0,0,0,0,0,0,0,0,0,0,0,0,
0,0,0,0,0,0,0,0,0,0,0,0,0,0,0,0,
0,0,24,25,26,0,0,0,0,0,0,0,0,0,0,0,
0,0,46,47,48,0,0,0,0,0,0,0,0,0,0,0,
0,0,46,47,48,0,0,0,24,26,0,0,0,24,26,0,
0,0,46,47,48,0,0,0,46,48,0,0,0,46,48,0,
25,25,47,47,48,0,0,0,46,48,0,0,0,46,48,0,
47,47,47,47,48,0,0,0,46,48,0,0,0,46,48,0,
47,47,47,47,47,25,25,25,47,47,25,25,25,47,47,25,
47,47,47,47,47,47,47,47,47,47,47,47,47,47,47,47,
47,47,47,47,47,47,47,47,47,47,47,47,47,47,47,47
</chunk>
   <chunk x="16" y="-16" width="16" height="16">
0,0,0,0,0,0,0,0,0,0,0,0,0,0,0,0,
0,0,0,0,0,0,0,0,0,0,0,0,0,0,0,0,
25,25,25,25,25,25,25,25,25,25,25,25,25,25,25,25,
69,69,69,69,69,69,69,69,69,69,69,69,69,69,69,69,
0,0,0,0,0,0,0,0,0,0,0,0,0,0,0,0,
0,0,0,0,0,0,0,0,0,0,0,0,0,0,0,0,
0,0,0,0,0,0,0,0,0,0,0,0,0,0,0,0,
0,0,0,0,0,0,0,0,0,0,0,0,0,0,0,0,
0,0,0,0,0,0,0,0,0,0,0,0,0,0,0,0,
0,0,24,26,0,0,0,24,25,25,25,25,25,25,25,25,
0,0,46,48,0,0,0,46,47,47,47,47,47,47,47,47,
0,0,46,48,0,0,0,46,47,47,47,47,47,47,47,47,
0,0,46,48,0,0,0,46,47,47,47,47,47,47,47,47,
25,25,47,47,25,25,25,47,47,47,47,47,47,47,47,47,
47,47,47,47,47,47,47,47,47,47,47,47,47,47,47,47,
47,47,47,47,47,47,47,47,47,47,47,47,47,47,47,47
</chunk>
   <chunk x="32" y="-16" width="16" height="16">
0,0,0,0,0,0,0,47,0,0,0,0,0,0,0,0,
0,0,0,0,0,0,0,47,0,0,0,0,0,0,0,0,
25,25,25,25,25,25,25,47,0,0,0,0,0,0,0,0,
69,69,69,69,69,69,69,47,0,0,0,0,0,0,0,0,
0,0,0,0,0,0,0,46,0,0,0,0,0,0,0,0,
0,0,0,0,0,0,0,46,0,0,0,0,0,0,0,0,
0,0,0,0,0,0,0,46,0,0,0,0,0,0,0,0,
0,0,0,0,0,0,0,46,0,0,0,0,0,0,0,0,
0,0,0,0,0,0,0,46,0,0,0,0,0,0,0,0,
25,25,25,25,25,25,25,47,0,0,0,0,0,0,0,0,
47,47,47,47,47,47,47,47,0,0,0,0,0,0,0,0,
47,47,47,47,47,47,47,47,0,0,0,0,0,0,0,0,
47,47,47,47,47,47,47,47,0,0,0,0,0,0,0,0,
47,47,47,47,47,47,47,47,0,0,0,0,0,0,0,0,
47,47,47,47,47,47,47,47,0,0,0,0,0,0,0,0,
47,47,47,47,47,47,47,47,0,0,0,0,0,0,0,0
</chunk>
  </data>
 </layer>
</map>
